icons/assets/Group 309.svg

<svg width="77" height="77" viewBox="0 0 77 77" fill="none" xmlns="http://www.w3.org/2000/svg">
<circle cx="15" cy="15" r="15" fill="#74CAF4" fill-opacity="0.5"/>
<path fill-rule="evenodd" clip-rule="evenodd" d="M38.0003 53.5726C31.8189 53.5726 26.2247 49.9126 23.7494 44.2464C23.4368 43.5317 23.7639 42.6983 24.4786 42.3857C25.1974 42.0691 26.0292 42.4011 26.3393 43.115C28.3648 47.7514 32.9415 50.746 38.0003 50.746C43.06 50.746 47.6374 47.7498 49.6621 43.1142C49.9747 42.4002 50.8033 42.0691 51.5236 42.3849C52.2384 42.6966 52.5654 43.5301 52.2521 44.2448C49.7776 49.911 44.1833 53.5726 38.0003 53.5726Z" fill="#0A3B70"/>
<path fill-rule="evenodd" clip-rule="evenodd" d="M47.8935 35.1994C47.8935 33.6375 46.6279 32.3728 45.0668 32.3728C43.5057 32.3728 42.2402 33.6375 42.2402 35.1994C42.2402 36.7605 43.5057 38.026 45.0668 38.026C46.6279 38.026 47.8935 36.7605 47.8935 35.1994Z" fill="#0A3B70"/>
<path fill-rule="evenodd" clip-rule="evenodd" d="M28.1074 35.1994C28.1074 33.6375 29.3729 32.3728 30.934 32.3728C32.4951 32.3728 33.7606 33.6375 33.7606 35.1994C33.7606 36.7605 32.4951 38.026 30.934 38.026C29.3729 38.026 28.1074 36.7605 28.1074 35.1994Z" fill="#0A3B70"/>
<path fill-rule="evenodd" clip-rule="evenodd" d="M37.1102 29.6868C34.0389 29.6868 31.541 27.1881 31.541 24.1184C31.541 21.7352 33.4809 19.7961 35.8641 19.7961C36.6451 19.7961 37.2774 20.4277 37.2774 21.2094C37.2774 21.9912 36.6451 22.6227 35.8641 22.6227C35.0395 22.6227 34.3676 23.2939 34.3676 24.1184C34.3676 25.6303 35.5976 26.8602 37.1102 26.8602C39.6041 26.8602 41.6336 24.8307 41.6336 22.3368C41.6336 20.078 40.5385 17.9354 38.7053 16.6093C38.0705 16.1506 37.9308 15.2679 38.3871 14.6355C38.845 14.0016 39.7301 13.8611 40.3608 14.3182C42.9274 16.1765 44.4602 19.1735 44.4602 22.3368C44.4602 26.3894 41.1628 29.6868 37.1102 29.6868Z" fill="#0A3B70"/>
<mask id="mask0_662_5630" style="mask-type:alpha" maskUnits="userSpaceOnUse" x="9" y="14" width="58" height="49">
<path d="M9 14H67V62.0521H9V14Z" fill="white"/>
</mask>
<g mask="url(#mask0_662_5630)">
<path fill-rule="evenodd" clip-rule="evenodd" d="M17.9684 44.9821C20.9275 53.5152 28.9332 59.2257 38.0002 59.2257C47.0898 59.2257 55.1157 53.4861 58.0554 44.9142C58.0554 44.9118 58.057 44.907 58.057 44.9045C58.1434 44.277 58.6199 43.7763 59.2474 43.6899C62.0571 43.3022 64.1738 40.8673 64.1738 38.0278C64.1738 35.2036 62.07 32.7703 59.2805 32.3705C58.6942 32.2841 58.2282 31.8448 58.1022 31.2754C55.2013 22.6268 47.1407 16.8266 38.0002 16.8266C28.8468 16.8266 20.7757 22.6438 17.8844 31.3126C17.7488 31.8634 17.2917 32.2865 16.7191 32.3705C13.9296 32.7703 11.8266 35.2036 11.8266 38.0278C11.8266 40.8673 13.9433 43.3022 16.7522 43.6899C17.3829 43.7771 17.8788 44.2754 17.9612 44.907C17.9636 44.932 17.9668 44.9578 17.9684 44.9821ZM38.0002 62.0524C27.868 62.0524 18.9036 55.7603 15.4406 46.3098C11.7103 45.3616 9 41.9544 9 38.0278C9 34.1085 11.7119 30.6948 15.4398 29.7466C18.9004 20.2936 27.864 14 38.0002 14C48.1356 14 57.0992 20.2936 60.5598 29.7466C64.2877 30.6948 67.0004 34.1085 67.0004 38.0278C67.0004 41.9544 64.2893 45.3616 60.5598 46.309C57.0976 55.7603 48.1324 62.0524 38.0002 62.0524Z" fill="#0A3B70"/>
</g>
</svg>

<?xml version="1.0" encoding="utf-8"?>
<!-- Generator: Adobe Illustrator 26.0.1, SVG Export Plug-In . SVG Version: 6.00 Build 0)  -->
<svg version="1.1" id="Layer_1" xmlns="http://www.w3.org/2000/svg" xmlns:xlink="http://www.w3.org/1999/xlink" x="0px" y="0px"
	 viewBox="0 0 77 77" style="enable-background:new 0 0 77 77;" xml:space="preserve">
<style type="text/css">
	.st0{fill:#C3E3F7;}
	.st1{fill-rule:evenodd;clip-rule:evenodd;fill:#0A3B70;}
	.st2{fill:#FFFFFF;filter:url(#Adobe_OpacityMaskFilter);}
	.st3{mask:url(#mask0_662_5630_00000159443872145416786420000015830682243057560225_);}
</style>
<circle class="st0" cx="15" cy="15" r="15"/>
<path class="st1" d="M38,53.6c-6.2,0-11.8-3.7-14.3-9.3c-0.3-0.7,0-1.5,0.7-1.9c0.7-0.3,1.6,0,1.9,0.7c2,4.6,6.6,7.6,11.7,7.6
	c5.1,0,9.6-3,11.7-7.6c0.3-0.7,1.1-1,1.9-0.7c0.7,0.3,1,1.1,0.7,1.9C49.8,49.9,44.2,53.6,38,53.6z"/>
<path class="st1" d="M47.9,35.2c0-1.6-1.3-2.8-2.8-2.8s-2.8,1.3-2.8,2.8c0,1.6,1.3,2.8,2.8,2.8S47.9,36.8,47.9,35.2z"/>
<path class="st1" d="M28.1,35.2c0-1.6,1.3-2.8,2.8-2.8c1.6,0,2.8,1.3,2.8,2.8c0,1.6-1.3,2.8-2.8,2.8C29.4,38,28.1,36.8,28.1,35.2z"
	/>
<path class="st1" d="M37.1,29.7c-3.1,0-5.6-2.5-5.6-5.6c0-2.4,1.9-4.3,4.3-4.3c0.8,0,1.4,0.6,1.4,1.4c0,0.8-0.6,1.4-1.4,1.4
	c-0.8,0-1.5,0.7-1.5,1.5c0,1.5,1.2,2.7,2.7,2.7c2.5,0,4.5-2,4.5-4.5c0-2.3-1.1-4.4-2.9-5.7c-0.6-0.5-0.8-1.3-0.3-2
	c0.5-0.6,1.3-0.8,2-0.3c2.6,1.9,4.1,4.9,4.1,8C44.5,26.4,41.2,29.7,37.1,29.7z"/>
<defs>
	<filter id="Adobe_OpacityMaskFilter" filterUnits="userSpaceOnUse" x="9" y="14" width="58" height="48.1">
		<feColorMatrix  type="matrix" values="1 0 0 0 0  0 1 0 0 0  0 0 1 0 0  0 0 0 1 0"/>
	</filter>
</defs>
<mask maskUnits="userSpaceOnUse" x="9" y="14" width="58" height="48.1" id="mask0_662_5630_00000159443872145416786420000015830682243057560225_">
	<path class="st2" d="M9,14h58v48.1H9V14z"/>
</mask>
<g class="st3">
	<path class="st1" d="M18,45c3,8.5,11,14.2,20,14.2c9.1,0,17.1-5.7,20.1-14.3c0,0,0,0,0,0c0.1-0.6,0.6-1.1,1.2-1.2
		c2.8-0.4,4.9-2.8,4.9-5.7c0-2.8-2.1-5.3-4.9-5.7c-0.6-0.1-1.1-0.5-1.2-1.1c-2.9-8.6-11-14.4-20.1-14.4c-9.2,0-17.2,5.8-20.1,14.5
		c-0.1,0.6-0.6,1-1.2,1.1c-2.8,0.4-4.9,2.8-4.9,5.7c0,2.8,2.1,5.3,4.9,5.7C17.4,43.8,17.9,44.3,18,45C18,44.9,18,45,18,45z M38,62.1
		c-10.1,0-19.1-6.3-22.6-15.7C11.7,45.4,9,42,9,38c0-3.9,2.7-7.3,6.4-8.3C18.9,20.3,27.9,14,38,14c10.1,0,19.1,6.3,22.6,15.7
		c3.7,0.9,6.4,4.4,6.4,8.3c0,3.9-2.7,7.3-6.4,8.3C57.1,55.8,48.1,62.1,38,62.1z"/>
</g>
</svg>
